X: 37866
T: Sound As A Trout
R: jig
M: 6/8
K: Gmajor
|:g2d BAG|B2d BAG|BdB BAB|GAB def|
g2d BAG|B2d BAG|BdB AGF|1 G3G2 B:|2 G3G2 B||
|:A2F DED|A2B cBA|B2G GAB|c2B AdB|
A2F DED|A2B cBA|BdB AGF|1 G3G2 cB:|2 G3G2f||

